X:1
T:Gavotte des notables "An hini vras"
C:Traditionnel région de Plougastel, fichier abc : Bernard Loffet
L:1/8
Q:220
M:2/4
K:C
|: [GC,,]c [G3/2C,3/2]c/ | [eE,,]d [cE,]G | [dF,,]c [B2F,2] | [A2D,,2] [G2G,,2] :| [GC,,]c [e3/2C,3/2]g/ | \
 [fF,,]e [dF,]c | [BG,,]c [d2G,2] | [B2G,,2] [G2G,2] | [GC,,]c [e3/2C,3/2]g/ | [fF,,]e [dF,]c | \
 [BG,,]c [d2G,2] | [B2G,,2] [c2C,,2] | \
W:Created with TablEdit http://www.tabledit.com/ by Bernard Loffet
